X: 526
T:Mulineira de Santalla d'Ozcos
M:6/8
L:1/8
R:Mulineira / Jig
D:Flook : Rubai (Flatfish 004CD)
Z:Steve Mansfield 12 June 2002
N:Posted to the woodenflute mailing list June 2002
N:Played in Eb on the CD
K:D
g | afg {e}fed | f2e A3 | efg efg | ~a2a abg | afg {e}fed | f2e A3 |
efg ecA |1 ~d2 d df :|2 ~d3 |: DFA dce | gce d2A | BcB AGF |
EDE {F}G2F | DFA dce | gce d2A | dcB AGF |1 ~EDE D3 :|2 g2e d2 ||
<end>
<start>
